!!!OTL: Yigengen zhudan liangtoujian
!!!ARE: Asia, China, Fujian Chongan
!! II, 572
!!!SCT: C1996
!!!YEM: Copyright 1995, estate of Helmut Schaffrath.
**kern
*ICvox
*Ivox
*M2/4
*k[b-e-]
*B-:
{8b-
16b-
16b-
8cc
16cc
16cc
=1
8.b-
16g
8b-
16b-
16g
=2
8f
8b-
8g
16b-
16g
=3
8.f
16d
4f}
=4
{8f
16b-
16b-
8g
16b-
16g
=5
16g
16b-
16b-
16d
8.f
16f
=6
8f
8b-
8g
16b-
16g
=7
8f
8f
4f}
=8
{8b-
16b-
16g
8b-
16b-
16g
=9
8.b-
16g
8b-
16b-
16g
=10
8f
8b-
8g
16b-
16g
=11
8.f
16d
4f}
=12
{8f
16b-
16b-
8g
8b-
=13
16g
16b-
16b-
16d
8f
8r
=14
8f
8b-
8g
16b-
16g
=15
8f
8f
4f}
==
!!!AGN: Shange, Daohua shange
!!!AMT: simple duple
!!!AIN: vox
!!!EED: Helmut Schaffrath
!!!EEV: 1.0
*-
